X: 56
T: RADIO SHETLAND
S: Eunice Henderson, Bells Brae
R: reel
B: Haand me doon da fiddle, 1979
Z: 2012 John Chambers <jc:trillian.mit.edu>
M: C
L: 1/8
K: D
de |\
f2fd e2ec | dedB A2de | f2fd efec | ve<ua-.a2 v.a3A |
[e2d2][ed][ed] [e2c2][ec][ec] | BcdB A2de | f2fd efec | vA<ud-d2 d2 :||: fg |
a2af d2dA | BABd A2de | f2fd efec | e<a-[a2A2] [a3A2]A |
[e2d2][ed][ed] [e2c2][ec][ec] | BcdB A2de | f2fd efec | vA<ud-d2 d2 :|
%%begintext align
Dis is annidder wan o' Steven Spence's it he composed whin
Radio Shetland started broadcasting.
%%endtext

%%sep 2 1 500
%%sep 1 1 500

